icons/badge.svg

<svg width="24" height="24" viewBox="0 0 24 24" fill="none" xmlns="http://www.w3.org/2000/svg">
<path d="M9.5937 3.19849L9.59251 3.1995C9.00729 3.72057 8.2631 4.02954 7.48081 4.07429C6.67866 4.1385 6.27758 4.17114 5.94388 4.28904C5.56224 4.42396 5.21558 4.64247 4.92926 4.92861C4.64294 5.21474 4.42421 5.56126 4.28905 5.94282C4.17115 6.27757 4.13851 6.67865 4.0743 7.47975C4.00903 8.30506 3.74691 8.9493 3.19951 9.5925L3.19849 9.59369C2.67809 10.2045 2.41726 10.5107 2.26472 10.8305C2.09029 11.1956 1.99966 11.5952 1.99948 11.9999C1.9993 12.4046 2.08956 12.8042 2.26367 13.1695C2.41736 13.4896 2.67843 13.7959 3.20056 14.4075C3.72163 14.9927 4.02955 15.7369 4.0743 16.5192C4.13851 17.3214 4.17115 17.7224 4.28905 18.0561C4.42396 18.4378 4.64248 18.7844 4.92862 19.0707C5.21475 19.3571 5.56127 19.5758 5.94282 19.711C6.27758 19.8289 6.67866 19.8615 7.47975 19.9257C8.26255 19.9705 9.00716 20.2788 9.59251 20.8005L9.59369 20.8015C10.2045 21.3219 10.5107 21.5827 10.8305 21.7353C11.1957 21.9096 11.5953 22 12 22C12.4047 22 12.8043 21.9096 13.1695 21.7353C13.4896 21.5826 13.7959 21.3216 14.4075 20.7994C15.0381 20.2626 15.6771 19.992 16.5192 19.9257C17.3214 19.8615 17.7224 19.8289 18.0561 19.711C18.4378 19.576 18.7844 19.3575 19.0708 19.0714C19.3571 18.7853 19.5758 18.4387 19.711 18.0572C19.8289 17.7224 19.8615 17.3214 19.9257 16.5203C19.9705 15.7375 20.2788 14.9929 20.8005 14.4075L20.8015 14.4063C21.3219 13.7955 21.5828 13.4894 21.7353 13.1695C22.089 12.4306 22.089 11.5705 21.7353 10.8305C21.5827 10.5104 21.3216 10.2041 20.7995 9.5925C20.2626 8.96193 19.992 8.32295 19.9257 7.4808C19.8615 6.67865 19.8289 6.27757 19.711 5.94387C19.4383 5.17014 18.8299 4.56274 18.0572 4.28904C17.7224 4.17114 17.3214 4.1385 16.5203 4.07429C15.6781 4.00797 15.0381 3.73638 14.4075 3.1995L14.4063 3.19848C13.7955 2.67808 13.4894 2.41725 13.1695 2.26471C12.8043 2.09044 12.4047 2 12 2C11.5953 2 11.1957 2.09044 10.8305 2.26471C10.5107 2.41726 10.2045 2.67808 9.5937 3.19849Z" stroke="black" stroke-width="2" stroke-linecap="round" stroke-linejoin="round"/>
</svg>

<svg xmlns="http://www.w3.org/2000/svg" width="24" height="24" viewBox="0 0 24 24" fill="none" stroke="currentColor" stroke-width="2" stroke-linecap="round" stroke-linejoin="round">
<path d="m9.594 3.198-.001.002a3.48 3.48 0 0 1-2.112.874c-.802.064-1.203.097-1.537.215a2.72 2.72 0 0 0-1.655 1.654c-.118.335-.15.736-.215 1.537-.065.825-.327 1.47-.874 2.112l-.002.002c-.52.61-.78.917-.933 1.237a2.72 2.72 0 0 0-.001 2.339c.153.32.414.626.937 1.238.52.585.829 1.329.873 2.111.065.802.097 1.203.215 1.537a2.72 2.72 0 0 0 1.654 1.655c.335.118.736.15 1.537.215a3.47 3.47 0 0 1 2.113.875h0c.611.52.918.782 1.238.934a2.72 2.72 0 0 0 2.339 0c.32-.152.626-.413 1.238-.936.63-.536 1.27-.807 2.111-.873.802-.064 1.203-.097 1.537-.215a2.72 2.72 0 0 0 1.655-1.654c.118-.335.15-.736.215-1.537a3.47 3.47 0 0 1 .875-2.112v-.002c.52-.61.782-.917.934-1.237a2.71 2.71 0 0 0 0-2.338c-.152-.32-.413-.627-.936-1.239-.536-.63-.807-1.269-.873-2.111-.064-.802-.097-1.203-.215-1.537a2.71 2.71 0 0 0-1.654-1.655c-.335-.118-.736-.15-1.537-.215-.842-.066-1.482-.338-2.112-.874l-.002-.002c-.61-.52-.917-.78-1.237-.933a2.72 2.72 0 0 0-2.338 0c-.32.152-.626.413-1.237.933"/>
</svg>
